X: 22736
T: Lamshaw's Fancy
R: reel
M: 4/4
K: Gmajor
DD/G/ BG dG BG|EE/A/ cA eA cA|DD/G/ BG dG BG|B/c/d A3/2c/ BG G2:|
|:gd Bd Gd Bd|g/f/e/d/ ce Ae ce|g/f/e/d/ Bd Gd Bd|e/f/g d3/2c/ BG G2:|

